dist/img/svg/arr-menu.svg

<svg width="11" height="6" viewBox="0 0 11 6" fill="none" xmlns="http://www.w3.org/2000/svg">
<path d="M5.50233 3.95284L1.38707 0.185882C1.27403 0.0659671 1.12289 -7.45497e-09 0.96174 0C0.800496 7.45911e-09 0.649447 0.0659672 0.536228 0.185882L0.175821 0.56749C0.0624227 0.687215 -7.04429e-09 0.84726 0 1.01781C7.04429e-09 1.18836 0.0624228 1.34821 0.175821 1.46803L5.07538 5.81431C5.18896 5.9346 5.34072 6.00047 5.50206 6C5.6641 6.00047 5.81569 5.93469 5.92936 5.81431L10.8242 1.47286C10.9376 1.35304 11 1.19319 11 1.02254C11 0.851992 10.9376 0.692137 10.8242 0.572222L10.4638 0.190709C10.2292 -0.0575445 9.84732 -0.0575445 9.61284 0.190709L5.50233 3.95284Z" fill="white"/>
</svg>

<svg width="11" height="6" viewBox="0 0 11 6" fill="none" xmlns="http://www.w3.org/2000/svg"><path d="M5.502 3.953L1.387.186a.58.58 0 00-.85 0L.175.567a.65.65 0 00-.176.45.65.65 0 00.176.451l4.9 4.346a.58.58 0 00.853 0l4.895-4.341a.65.65 0 00.176-.45.647.647 0 00-.176-.45l-.36-.382a.58.58 0 00-.851 0l-4.11 3.762z" fill="#fff"/></svg>
